source/img/catalog/liked_icon.svg

<svg width="23" height="21" viewBox="0 0 23 21" fill="none" xmlns="http://www.w3.org/2000/svg">
<path d="M12.9636 3.78L12.3364 6.825L11.7091 9.45L14 10L18.5 12.285L20.8045 11.55C20.8045 11.55 20.8045 11.55 20.8045 11.655L12 9L11.5 11L12.5 9.15077L12.9636 3.78ZM13.8 0L6.9 6.93C6.48182 7.245 6.27273 7.77 6.27273 8.4V18.9C6.27273 20.055 7.21364 21 8.36364 21H17.7727C18.6091 21 19.3409 20.475 19.6545 19.74L22.7909 12.285C22.8955 12.075 22.8955 11.76 22.8955 11.55V9.45H23C23 8.295 22.0591 7.35 20.9091 7.35H14.3227L15.3682 2.52V2.205C15.3682 1.785 15.1591 1.365 14.95 1.05L13.8 0ZM4.18182 8.4H0V21H4.18182V8.4Z" fill="#5496BD"/>
</svg>

<svg width="23" height="21" fill="none" xmlns="http://www.w3.org/2000/svg"><path d="m12.96 3.78-.62 3.05-.63 2.62L14 10l4.5 2.29 2.3-.74v.1L12 9l-.5 2 1-1.85.46-5.37ZM13.8 0 6.9 6.93c-.42.32-.63.84-.63 1.47v10.5c0 1.16.94 2.1 2.1 2.1h9.4c.84 0 1.57-.52 1.88-1.26l3.14-7.45c.1-.21.1-.53.1-.74v-2.1H23a2.1 2.1 0 0 0-2.1-2.1h-6.58l1.05-4.83v-.31c0-.43-.21-.84-.42-1.16L13.8 0ZM4.18 8.4H0V21h4.18V8.4Z" fill="#5496BD"/></svg>
